X: 21
T: Lark In The Morning, The
Z: Graham Glendinning
S: https://thesession.org/tunes/62#setting48404
R: jig
M: 6/8
L: 1/8
K: Dmaj
|:AFA AFA|BGB BdB|AFA AFA|fed BdB|
AFA AFA|BGB BAB|def afe|edB BAB:|
|:def afa|baf afe|def afe|edB BAB|
def afa|baf afe|gbg faf|edB BAB:|
|:d2f fef|fef fef|d2f fef|edB BAB|
d2f fef|fef fef|gbg faf|edB BAB:|
|:Add fdd|edd fdB|Add fdd|edB BAB|
Add fdd|ede fef|gbg faf|edB BAB:|

